frontend/public/assets/material-icons/cake.svg

<svg xmlns="http://www.w3.org/2000/svg" viewBox="0 0 32 32">
  <path d="M16.00008,10A2.84674,2.84674,0,0,0,19,7.33677V7.33382a2.32214,2.32214,0,0,0-.43472-1.37142L16.00008,2,13.43489,5.95945a2.33056,2.33056,0,0,0-.43473,1.3729A2.84741,2.84741,0,0,0,15.99842,10h.00166m6.13378,13.3755L20.70751,22,19.2679,23.3755a4.91678,4.91678,0,0,1-6.51958,0L11.33378,22,9.86762,23.3755A4.78945,4.78945,0,0,1,4,23.87108V29a1,1,0,0,0,1,1H27a1,1,0,0,0,1-1V23.87108a4.78945,4.78945,0,0,1-5.86614-.497M23.99975,14H17.33268V12H14.66732v2H8.00025A4.1446,4.1446,0,0,0,4,18.0895H4v1.41573A2.5603,2.5603,0,0,0,6.61373,22a2.52767,2.52767,0,0,0,1.83935-.72647l2.8807-2.71018,2.81286,2.71018a2.764,2.764,0,0,0,3.69344,0l2.82613-2.71018,2.86744,2.71018A2.64855,2.64855,0,0,0,28,19.50523V18.0895A4.1446,4.1446,0,0,0,23.99975,14Z" style="fill: #ff7043"/>
</svg>

<svg xmlns="http://www.w3.org/2000/svg" viewBox="0 0 32 32"><path fill="#ff7043" d="M16 10a2.847 2.847 0 0 0 3-2.663v-.003a2.32 2.32 0 0 0-.435-1.372L16 2l-2.565 3.96A2.33 2.33 0 0 0 13 7.331 2.847 2.847 0 0 0 15.998 10zm6.134 13.376L20.708 22l-1.44 1.375a4.917 4.917 0 0 1-6.52 0L11.334 22l-1.466 1.375A4.79 4.79 0 0 1 4 23.871V29a1 1 0 0 0 1 1h22a1 1 0 0 0 1-1v-5.129a4.79 4.79 0 0 1-5.866-.497M24 14h-6.667v-2h-2.666v2H8a4.145 4.145 0 0 0-4 4.09v1.415A2.56 2.56 0 0 0 6.614 22a2.53 2.53 0 0 0 1.84-.726l2.88-2.71 2.813 2.71a2.764 2.764 0 0 0 3.693 0l2.826-2.71 2.868 2.71A2.649 2.649 0 0 0 28 19.505V18.09A4.145 4.145 0 0 0 24 14"/></svg>
